X:1
T:088 - Que Fazes Por Mim
T:Letra: Frances Ridley Havergal (1836-1879)
T:Trad.: Robert Hawkey Moreton (1844-1917)
T:Música: William Henry Havergal (1793-1870)
M:4/4
L:1/4
Q:1/4=115
K:Ebmaj
V:1
B2 | "Eb"EFG"Ab"A | "Bb"B2"Eb"G2| "Ab"cBA"Bb"B| "Eb"G2"Bb"B2| "Eb"EFG "Ab"A | "Bb"B2 "Eb"G2| "Ab"cBA"Bb"F| "Eb"E2 "Cm"c2| edc "Fm"A| "G"HG2 "Ab"E2| "Eb"BAG "Bb"F| "Eb"E2|]
w: 1.~Das gló-rias e-ter-nais Ao mun-do vil des-ci; A sor-teeu as-su-mi Dos mí-se-ros mor-tais; E tu-do foi por ti, Que fa-zes tu por mim?
w: 2.~Meu san-gue der-ra-mei, E, no so-frer cru-el, Be-bi vi-na-gree fel; Na cruz eu ex-pi-rei; E tu-do foi por ti, Que so-fres tu por mim?
w: 3.~Pra dar-tea sal-va-ção So-fri, pe-nei, mor-ri; Teu subs-ti-tu-to fui Em du-raes-cra-vi-dão; E tu-do foi por ti, Que des-te tu por Mim?
w: 4.~Do Pai ce-les-tial Com-ple-ta re-den-ção, A e-ter-na sal-va-ção, A di-ta pe-re-nal Te dou de gra-çaa ti; Não te-mas, vem a mim.
W: 
W:
W: 1. Das glórias eternais
W: Ao mundo vil desci;
W: A sorte eu assumi
W: Dos míseros mortais;
W: E tudo foi por ti,
W: Que fazes tu por mim?
W: 
W: 2. Meu sangue derramei,
W: E, no sofrer cruel,
W: Bebi vinagre e fel;
W: Na cruz eu expirei;
W: E tudo foi por ti,
W: Que sofres tu por mim?
W: 
W:
W:
W: 3. Pra dar-te a salvação
W: Sofri, penei, morri;
W: Teu substituto fui
W: Em dura escravidão;
W: E tudo foi por ti,
W: Que deste tu por Mim?
W: 
W: 4. Do Pai celestial
W: Completa redenção,
W: A eterna salvação,
W: A dita perenal
W: Te dou de graça a ti;
W: Não temas, vem a mim.
W:         
W: 





